X:1
T:Calming Breeze
M:4/4
L:1/8
K:Dm
D2 F2 A2 A2 | G2 F2 E2 D2 | C2 D2 E2 F2 | D4 D4 |
A2 A2 D2 F2 | G2 A2 F2 E2 | D2 C2 E2 A,2 | D4 D4 ||